T: There Was A Lad Born In Kyle
M: 4/4
L: 1/8
K: Dmaj
D2 D2 AB/A/ D>E | F3 E E2 FE | D2 D2 A2 D>E | F2 d2 A3 A |B>GdA FGAF | BAGF EF/E/ GF/E/ | D2 d2 A>BAG | F2 E2 D2 ||d3 A d>efd | e2 d/e/f e2 dB | ABde de g/f/e | d2 A2 F3 A |B>GdA F2 A/G/F | BAGF E2 G/F/E | D2 d2 A>BAG | F3 E D2 |]
